!!!OTL: DIE MEIERSCHE BRUECKE
!!!ARE: Europa, Mitteleuropa, Deutschland, Kassel
!!!SCT: K2305A
!!!YEM: Copyright 1995, estate of Helmut Schaffrath.
**kern
*ICvox
*Ivox
*M6/8
*k[f#c#]
*D:
{8a
=1
8a
8a
8a
8f#
8d
8b
=2
4a
8a
8f#
8d}
{8a
=3
8a
8a
8a
8f#
8d}
{8b
=4
4.a
4f#
8b
=5
4.a
4f#}
{8d
=6
4a
8a
4b
8b
=7
4.a
4f#}
{8d
=8
8a
8a
8a
4b
8b
=9
4a
8g
8f#
8d}
{8b
=10
4a
8g
4f#
8b
=11
4a
8g
4f#}
{8a
=12
8ff#
8dd
8a
8a
8g
8e
=13
8d
8d
4.r}
==
!!!AGN: Kinder - Lied, Reigen, Tanz - Spiel
!!!ONB: ESAC (Essen Associative Code) Database: KINDER
!!!AMT: compound duple
!!!AIN: vox
!!!EED: Helmut Schaffrath
!!!EEV: 1.0
*-
